humanity-icon-theme/Humanity/apps/24/ooo-draw.svg

<?xml version="1.0" encoding="UTF-8" standalone="no"?>
<!-- Created with Inkscape (http://www.inkscape.org/) -->

<svg
   xmlns:svg="http://www.w3.org/2000/svg"
   xmlns="http://www.w3.org/2000/svg"
   xmlns:xlink="http://www.w3.org/1999/xlink"
   version="1.1"
   width="24"
   height="24"
   id="svg3309">
  <defs
     id="defs3311">
    <linearGradient
       x1="10.148324"
       y1="43.124264"
       x2="10.550242"
       y2="-1.086264"
       id="linearGradient3496"
       xlink:href="#linearGradient3763-4"
       gradientUnits="userSpaceOnUse" />
    <radialGradient
       cx="16.960728"
       cy="5.8834233"
       r="22.105263"
       fx="16.960728"
       fy="5.8834233"
       id="radialGradient3494"
       xlink:href="#linearGradient3720-6"
       gradientUnits="userSpaceOnUse"
       gradientTransform="matrix(0,2,-1.3459458,0,28.918769,-35.007719)" />
    <radialGradient
       cx="605.71429"
       cy="486.64789"
       r="117.14286"
       fx="605.71429"
       fy="486.64789"
       id="radialGradient3473"
       xlink:href="#linearGradient5060-3"
       gradientUnits="userSpaceOnUse"
       gradientTransform="matrix(-2.774389,0,0,1.969706,112.7623,-872.8854)" />
    <radialGradient
       cx="605.71429"
       cy="486.64789"
       r="117.14286"
       fx="605.71429"
       fy="486.64789"
       id="radialGradient3471"
       xlink:href="#linearGradient5060-3"
       gradientUnits="userSpaceOnUse"
       gradientTransform="matrix(2.774389,0,0,1.969706,-1891.633,-872.8854)" />
    <linearGradient
       x1="302.85715"
       y1="366.64789"
       x2="302.85715"
       y2="609.50507"
       id="linearGradient3469"
       xlink:href="#linearGradient5048-5"
       gradientUnits="userSpaceOnUse"
       gradientTransform="matrix(2.774389,0,0,1.969706,-1892.179,-872.8854)" />
    <linearGradient
       id="linearGradient5060-3">
      <stop
         id="stop5062-2"
         style="stop-color:black;stop-opacity:1"
         offset="0" />
      <stop
         id="stop5064-1"
         style="stop-color:black;stop-opacity:0"
         offset="1" />
    </linearGradient>
    <linearGradient
       id="linearGradient5048-5">
      <stop
         id="stop5050-9"
         style="stop-color:black;stop-opacity:0"
         offset="0" />
      <stop
         id="stop5056-9"
         style="stop-color:black;stop-opacity:1"
         offset="0.5" />
      <stop
         id="stop5052-1"
         style="stop-color:black;stop-opacity:0"
         offset="1" />
    </linearGradient>
    <linearGradient
       id="linearGradient3931">
      <stop
         id="stop3933"
         style="stop-color:#8d8f8a;stop-opacity:1"
         offset="0" />
      <stop
         id="stop3935"
         style="stop-color:#cbcbcb;stop-opacity:1"
         offset="1" />
    </linearGradient>
    <linearGradient
       id="linearGradient3600-4">
      <stop
         id="stop3602-9"
         style="stop-color:#f4f4f4;stop-opacity:1"
         offset="0" />
      <stop
         id="stop3604-1"
         style="stop-color:#dbdbdb;stop-opacity:1"
         offset="1" />
    </linearGradient>
    <linearGradient
       id="linearGradient4559">
      <stop
         id="stop4561"
         style="stop-color:#cacaca;stop-opacity:1"
         offset="0" />
      <stop
         id="stop4563"
         style="stop-color:#949492;stop-opacity:1"
         offset="1" />
    </linearGradient>
    <linearGradient
       id="linearGradient8589-0">
      <stop
         id="stop8591-7"
         style="stop-color:#fefefe;stop-opacity:1"
         offset="0" />
      <stop
         id="stop8593-5"
         style="stop-color:#cbcbcb;stop-opacity:1"
         offset="1" />
    </linearGradient>
    <linearGradient
       id="linearGradient3763-4">
      <stop
         id="stop3765-6"
         style="stop-color:#1f4b6a;stop-opacity:1"
         offset="0" />
      <stop
         id="stop3767-2"
         style="stop-color:#4083c2;stop-opacity:1"
         offset="1" />
    </linearGradient>
    <linearGradient
       id="linearGradient3720-6">
      <stop
         id="stop3722-6"
         style="stop-color:#8badea;stop-opacity:1"
         offset="0" />
      <stop
         id="stop3728-4"
         style="stop-color:#6396cd;stop-opacity:1"
         offset="0.5" />
      <stop
         id="stop3730-0"
         style="stop-color:#3b7caf;stop-opacity:1"
         offset="0.84090906" />
      <stop
         id="stop3724-0"
         style="stop-color:#194c70;stop-opacity:1"
         offset="1" />
    </linearGradient>
    <linearGradient
       x1="32.892288"
       y1="8.0590115"
       x2="36.358372"
       y2="5.4565363"
       id="linearGradient3139"
       xlink:href="#linearGradient8589-0"
       gradientUnits="userSpaceOnUse"
       gradientTransform="matrix(0.45135916,0,0,0.41623792,1.7998269,0.858515)" />
    <linearGradient
       x1="17.288921"
       y1="2.184907"
       x2="15.179585"
       y2="5.8214641"
       id="linearGradient3141"
       xlink:href="#linearGradient4559"
       gradientUnits="userSpaceOnUse"
       gradientTransform="matrix(0.83333333,0,0,0.8,2.5833334,1.1)" />
    <linearGradient
       x1="25.132275"
       y1="6.7287393"
       x2="25.132275"
       y2="47.013336"
       id="linearGradient3144"
       xlink:href="#linearGradient3600-4"
       gradientUnits="userSpaceOnUse"
       gradientTransform="matrix(0.5428805,0,0,0.4889072,-1.0291327,-0.2337718)" />
    <linearGradient
       x1="-51.786404"
       y1="50.786446"
       x2="-51.786404"
       y2="2.9062471"
       id="linearGradient3146"
       xlink:href="#linearGradient3931"
       gradientUnits="userSpaceOnUse"
       gradientTransform="matrix(0.4383743,0,0,0.4575444,31.223522,-0.7786496)" />
  </defs>
  <g
     transform="matrix(0.50043242,0,0,0.5168524,0.1147459,-0.5781821)"
     id="g3490"
     style="stroke-width:1.88256383;stroke-miterlimit:4;stroke-dasharray:none;display:inline">
    <g
       transform="matrix(0.02165152,0,0,0.01485743,43.0076,42.68539)"
       id="g5022"
       style="stroke-width:104.96237946;stroke-miterlimit:4;stroke-dasharray:none;display:inline">
      <rect
         width="1339.6335"
         height="478.35718"
         x="-1559.2523"
         y="-150.69685"
         id="rect4173"
         style="opacity:0.40206185;fill:url(#linearGradient3469);fill-opacity:1;fill-rule:nonzero;stroke:none;stroke-width:104.96237946;marker:none;visibility:visible;display:inline;overflow:visible" />
      <path
         d="m -219.61876,-150.68038 c 0,0 0,478.33079 0,478.33079 142.874166,0.90045 345.40022,-107.16966 345.40014,-239.196175 0,-132.026537 -159.436816,-239.134595 -345.40014,-239.134615 z"
         id="path5058"
         style="opacity:0.40206185;fill:url(#radialGradient3471);fill-opacity:1;fill-rule:nonzero;stroke:none;stroke-width:104.96237946;marker:none;visibility:visible;display:inline;overflow:visible" />
      <path
         d="m -1559.2523,-150.68038 c 0,0 0,478.33079 0,478.33079 -142.8742,0.90045 -345.4002,-107.16966 -345.4002,-239.196175 0,-132.026537 159.4368,-239.134595 345.4002,-239.134615 z"
         id="path5018"
         style="opacity:0.40206185;fill:url(#radialGradient3473);fill-opacity:1;fill-rule:nonzero;stroke:none;stroke-width:104.96237946;marker:none;visibility:visible;display:inline;overflow:visible" />
    </g>
  </g>
  <path
     d="m 3.5,1.5 c 4.3540581,0 7.707692,0 12.061752,0 0.7638,0.2373053 3.866742,1.9404149 4.938248,3.8123518 0,5.7293572 0,11.4587192 0,17.1880792 -6.333619,0 -10.6663826,0 -17,0 C 3.5,15.166809 3.5,8.8336218 3.5,1.5 z"
     id="rect2594"
     style="fill:url(#linearGradient3144);fill-opacity:1;stroke:url(#linearGradient3146);stroke-width:0.99913895;stroke-linecap:butt;stroke-linejoin:round;stroke-miterlimit:4;stroke-opacity:1;stroke-dasharray:none;stroke-dashoffset:0;display:inline" />
  <path
     d="m 15.5,1.5 c 0,1.810372 0,4 0,4 0,0 3.878048,0 5,0 0,-0.6692696 -4.017057,-3.9885741 -5,-4 z"
     id="path12038"
     style="fill:url(#linearGradient3139);fill-opacity:1;fill-rule:evenodd;stroke:url(#linearGradient3141);stroke-width:1;stroke-linecap:butt;stroke-linejoin:round;stroke-miterlimit:4;stroke-opacity:1;stroke-dasharray:none;display:inline" />
  <circle
     cx="21"
     cy="21.018999"
     r="21"
     transform="matrix(0.23809524,0,0,0.23809524,0.49999986,0.49547629)"
     id="circle51"
     style="fill:url(#radialGradient3494);fill-opacity:1;stroke:url(#linearGradient3496);stroke-width:4.20000029;stroke-miterlimit:4;stroke-opacity:1;stroke-dasharray:none" />
  <path
     d="M 0.7656693,6.070629 C 0.7191325,6.076399 4.2479373,5.4790648 5.5487288,9.411 6.3601114,5.7623339 10.267546,5.7285066 10.234918,5.7301563 c 0.09308,0 -3.2179609,-0.9232356 -4.7086997,1.4270699 C 4.0132231,5.0822132 0.65842931,6.070629 0.7656693,6.070629 z"
     id="path4552"
     style="fill:#173561;fill-opacity:1" />
  <path
     d="M 0.71731562,5.635975 C 0.67077878,5.6417479 4.1995837,5.0444107 5.5003756,8.976346 6.3117582,5.32768 10.219193,5.2938526 10.186565,5.2955023 c 0.09308,0 -3.2179611,-1.1564689 -4.7086998,1.1938365 C 3.9648695,4.4143258 0.61007563,5.635975 0.71731562,5.635975 z"
     id="path53"
     style="fill:white" />
  <path
     d="m 3.5720002,3.0366746 c 0,0 2.100685,-0.4543863 2.9244045,1.8303254 0.5160715,-2.1305759 2.8650685,-1.9491228 2.8650685,-1.9491228 0,0 -1.9107103,-0.7451125 -2.8790297,0.6558898 C 5.4924342,2.3271507 3.5712523,3.0366746 3.5720002,3.0366746 z"
     id="path4554"
     style="fill:#173561;fill-opacity:1" />
  <path
     d="m 3.5720002,2.5103588 c 0,0 2.100685,-0.454386 2.9244045,1.8303255 0.5160715,-2.1305762 2.8650685,-1.9491227 2.8650685,-1.9491227 0,0 -1.9107103,-0.7451126 -2.8790297,0.6558898 C 5.4924342,1.800835 3.5712523,2.5103588 3.5720002,2.5103588 z"
     id="path55"
     style="fill:white" />
  <g
     transform="translate(-60.433248,51.286492)"
     id="layer1"
     style="display:inline" />
  <g
     transform="translate(-60.433248,51.286492)"
     id="layer5"
     style="display:inline" />
  <circle
     cx="74"
     cy="43"
     r="5"
     transform="matrix(0.3,0,0,0.3,-9.7,-4.4)"
     id="circle3164" />
  <circle
     cx="74"
     cy="111"
     r="5"
     transform="matrix(0.3,0,0,0.3,-9.7,-14.8)"
     id="circle3168" />
  <path
     d="m 7,18 c 5,0 6,-8 10,-8"
     id="path3932"
     style="fill:none;stroke:#787878;stroke-width:1px;stroke-linecap:butt;stroke-linejoin:miter;stroke-opacity:1" />
  <g
     transform="matrix(0.5,0,0,0.15384615,-24.5,2.3846155)"
     id="g3174">
    <rect
       width="2"
       height="66"
       x="73"
       y="43"
       id="rect3176" />
  </g>
  <path
     d="M 11,13.500002 C 11,14.326875 11.673123,15 12.499999,15 13.326877,15 14,14.326875 14,13.500002 14,12.673125 13.326877,12 12.499999,12 11.673123,12 11,12.673125 11,13.500002 z"
     id="path3178" />
  <circle
     cx="74"
     cy="77"
     r="3"
     transform="matrix(0.33333333,0,0,0.33333333,-12.166666,-12.166667)"
     id="circle3180"
     style="fill:#f96c00" />
  <rect
     width="3"
     height="3"
     x="5"
     y="16"
     id="rect3186" />
  <rect
     width="2"
     height="2"
     x="5.5"
     y="16.5"
     id="rect3188"
     style="fill:white" />
  <rect
     width="3"
     height="3"
     x="16"
     y="8"
     id="rect3934" />
  <rect
     width="2"
     height="2"
     x="16.5"
     y="8.5"
     id="rect3936"
     style="fill:white" />
</svg>

<?xml version="1.0" encoding="UTF-8" standalone="no"?>
<!-- Created with Inkscape (http://www.inkscape.org/) -->
<svg id="svg3309" xmlns="http://www.w3.org/2000/svg" height="24" width="24" version="1.1" xmlns:xlink="http://www.w3.org/1999/xlink">
 <defs id="defs3311">
  <linearGradient id="linearGradient3496" y2="-1.0863" gradientUnits="userSpaceOnUse" x2="10.55" y1="43.124" x1="10.148">
   <stop id="stop3765-6" style="stop-color:#1f4b6a" offset="0"/>
   <stop id="stop3767-2" style="stop-color:#4083c2" offset="1"/>
  </linearGradient>
  <radialGradient id="radialGradient3494" gradientUnits="userSpaceOnUse" cy="5.8834" cx="16.961" gradientTransform="matrix(0 2 -1.3459 0 28.919 -35.008)" r="22.105">
   <stop id="stop3722-6" style="stop-color:#8badea" offset="0"/>
   <stop id="stop3728-4" style="stop-color:#6396cd" offset=".5"/>
   <stop id="stop3730-0" style="stop-color:#3b7caf" offset=".84091"/>
   <stop id="stop3724-0" style="stop-color:#194c70" offset="1"/>
  </radialGradient>
  <radialGradient id="radialGradient3473" xlink:href="#linearGradient5060-3" gradientUnits="userSpaceOnUse" cy="486.65" cx="605.71" gradientTransform="matrix(-2.7744 0 0 1.9697 112.76 -872.89)" r="117.14"/>
  <radialGradient id="radialGradient3471" xlink:href="#linearGradient5060-3" gradientUnits="userSpaceOnUse" cy="486.65" cx="605.71" gradientTransform="matrix(2.7744 0 0 1.9697 -1891.6 -872.89)" r="117.14"/>
  <linearGradient id="linearGradient3469" y2="609.51" gradientUnits="userSpaceOnUse" x2="302.86" gradientTransform="matrix(2.7744 0 0 1.9697 -1892.2 -872.89)" y1="366.65" x1="302.86">
   <stop id="stop5050-9" style="stop-opacity:0" offset="0"/>
   <stop id="stop5056-9" offset=".5"/>
   <stop id="stop5052-1" style="stop-opacity:0" offset="1"/>
  </linearGradient>
  <linearGradient id="linearGradient5060-3">
   <stop id="stop5062-2" offset="0"/>
   <stop id="stop5064-1" style="stop-opacity:0" offset="1"/>
  </linearGradient>
  <linearGradient id="linearGradient3139" y2="5.4565" gradientUnits="userSpaceOnUse" x2="36.358" gradientTransform="matrix(.45136 0 0 .41624 1.7998 .85852)" y1="8.059" x1="32.892">
   <stop id="stop8591-7" style="stop-color:#fefefe" offset="0"/>
   <stop id="stop8593-5" style="stop-color:#cbcbcb" offset="1"/>
  </linearGradient>
  <linearGradient id="linearGradient3141" y2="5.8215" gradientUnits="userSpaceOnUse" x2="15.18" gradientTransform="matrix(.83333 0 0 .8 2.5833 1.1)" y1="2.1849" x1="17.289">
   <stop id="stop4561" style="stop-color:#cacaca" offset="0"/>
   <stop id="stop4563" style="stop-color:#949492" offset="1"/>
  </linearGradient>
  <linearGradient id="linearGradient3144" y2="47.013" gradientUnits="userSpaceOnUse" x2="25.132" gradientTransform="matrix(.54288 0 0 .48891 -1.0291 -.23377)" y1="6.7287" x1="25.132">
   <stop id="stop3602-9" style="stop-color:#f4f4f4" offset="0"/>
   <stop id="stop3604-1" style="stop-color:#dbdbdb" offset="1"/>
  </linearGradient>
  <linearGradient id="linearGradient3146" y2="2.9062" gradientUnits="userSpaceOnUse" x2="-51.786" gradientTransform="matrix(.43837 0 0 .45754 31.224 -.77865)" y1="50.786" x1="-51.786">
   <stop id="stop3933" style="stop-color:#8d8f8a" offset="0"/>
   <stop id="stop3935" style="stop-color:#cbcbcb" offset="1"/>
  </linearGradient>
 </defs>
 <g id="g3490" style="stroke-width:1.8826" transform="matrix(.50043 0 0 .51685 .11475 -.57818)">
  <g id="g5022" style="stroke-width:104.96" transform="matrix(.021652 0 0 .014857 43.008 42.685)">
   <rect id="rect4173" style="opacity:.40206;fill:url(#linearGradient3469)" height="478.36" width="1339.6" y="-150.7" x="-1559.3"/>
   <path id="path5058" style="opacity:.40206;fill:url(#radialGradient3471)" d="m-219.62-150.68v478.33c142.87 0.90045 345.4-107.17 345.4-239.2s-159.44-239.13-345.4-239.13z"/>
   <path id="path5018" style="opacity:.40206;fill:url(#radialGradient3473)" d="m-1559.3-150.68v478.33c-142.87 0.90045-345.4-107.17-345.4-239.2s159.44-239.13 345.4-239.13z"/>
  </g>
 </g>
 <path id="rect2594" style="stroke-linejoin:round;stroke:url(#linearGradient3146);stroke-width:.99914;fill:url(#linearGradient3144)" d="m3.5 1.5h12.062c0.7638 0.23731 3.8667 1.9404 4.9382 3.8124v17.188h-17v-21z"/>
 <path id="path12038" style="stroke-linejoin:round;fill-rule:evenodd;stroke:url(#linearGradient3141);fill:url(#linearGradient3139)" d="m15.5 1.5v4h5c0-0.66927-4.0171-3.9886-5-4z"/>
 <circle id="circle51" style="stroke:url(#linearGradient3496);stroke-width:4.2;fill:url(#radialGradient3494)" transform="matrix(.23810 0 0 .23810 0.5 .49548)" cy="21.019" cx="21" r="21"/>
 <path id="path4552" style="fill:#173561" d="m0.76567 6.0706c-0.04654 0.0058 3.4822-0.5915 4.783 3.3404 0.8114-3.6487 4.7193-3.6825 4.6863-3.6808 0.09308 0-3.218-0.92324-4.7087 1.4271-1.5131-2.0751-4.8679-1.0867-4.7606-1.0867z"/>
 <path id="path53" style="fill:#fff" d="m0.71732 5.636c-0.04654 0.0057 3.4823-0.5916 4.7831 3.3403 0.8114-3.6486 4.7186-3.6824 4.6866-3.6808 0.09308 0-3.218-1.1565-4.7087 1.1938-1.5134-2.075-4.8682-0.8533-4.761-0.8533z"/>
 <path id="path4554" style="fill:#173561" d="m3.572 3.0367s2.1007-0.45439 2.9244 1.8303c0.51607-2.1306 2.8651-1.9491 2.8651-1.9491s-1.9107-0.74511-2.879 0.65589c-0.9901-1.2466-2.9112-0.5371-2.9105-0.5371z"/>
 <path id="path55" style="fill:#fff" d="m3.572 2.5104s2.1007-0.45439 2.9244 1.8303c0.51607-2.1306 2.8651-1.9491 2.8651-1.9491s-1.9107-0.74511-2.879 0.65589c-0.9901-1.2467-2.9112-0.5371-2.9105-0.5371z"/>
 <circle id="circle3164" cy="43" cx="74" r="5" transform="matrix(.3 0 0 .3 -9.7 -4.4)"/>
 <circle id="circle3168" cy="111" cx="74" r="5" transform="matrix(.3 0 0 .3 -9.7 -14.8)"/>
 <path id="path3932" style="stroke:#787878;stroke-width:1px;fill:none" d="m7 18c5 0 6-8 10-8"/>
 <g id="g3174" transform="matrix(.5 0 0 .15385 -24.5 2.3846)">
  <rect id="rect3176" y="43" width="2" x="73" height="66"/>
 </g>
 <path id="path3178" d="m11 13.5c0 0.827 0.673 1.5 1.5 1.5s1.5-0.673 1.5-1.5-0.673-1.5-1.5-1.5-1.5 0.673-1.5 1.5z"/>
 <circle id="circle3180" style="fill:#f96c00" transform="matrix(.33333 0 0 .33333 -12.167 -12.167)" cy="77" cx="74" r="3"/>
 <rect id="rect3186" y="16" width="3" x="5" height="3"/>
 <rect id="rect3188" style="fill:#fff" height="2" width="2" y="16.5" x="5.5"/>
 <rect id="rect3934" y="8" width="3" x="16" height="3"/>
 <rect id="rect3936" style="fill:#fff" height="2" width="2" y="8.5" x="16.5"/>
</svg>
